X:90
T:Lyndhurst 
C:Joe Buchanan's Scottish Tome - Page 085.0
I:085 0
C:Jack Smith
R:Jig
Z:Carl Allison
L:1/8
M:6/8
K:Bdor
|:f|"Bm"B>BB B>ca|B>ce f>ec|"A"A>AA A>ce|a>ga f>ec|
"Bm"B>BB B>ca|B>ce f>ec|"A"A>ce f>ec|"Bm"B>cB B2:|
|:c/e/|"Bm"(f2a) f>ea|f>ga f>ec|"A"A>AA A>ce|a>ga f>ec|
"Bm"(f2a) f>ea|f>ga f>ec|"A"A>ce f>ec|"Bm"B>cB B>ce|
"Bm"(f2a) f>ea|f>ga f>ec|"A"A>AA A>ce|a>ga f>ec|
"Bm"B>BB B>cA|B>ce f>ec|"A"A>ce f>ec|"Bm"B>cB B2|]
f|"Bm"B>cA c>BB|f>ea f>ec|"A"A>AA A>ce|a>ga f>ec|
"Bm"B>BB B>cA|B>ce f>ec|"A"A>ce f>ec|"Bm"B>cB B2:|
c/e/|"Bm"f>ea f2e|a>fe f>ec|"A"A>AA A>ce|a>ga f>ec|
"Bm"f>ea f2e|a>fe f>ec|"A"A>ce f>ec|"Bm"B>BB Bce|
"Bm"f>ea f2e|a>fe f>ec|"A"A>AA A>ce|"Bm"a>ga f>ec|
"Bm"B>cB c>BB|f>ea f>ec|"A"A>ce f>ec|"Bm"B>cB B2|]

